dist/img/icons/security/like.svg

<svg width="26" height="26" viewBox="0 0 26 26" fill="none" xmlns="http://www.w3.org/2000/svg">
<g clip-path="url(#clip0)">
<path d="M26 15.4391C26 14.7881 25.7411 14.1814 25.2958 13.7329C25.8018 13.1793 26.0585 12.4361 25.9881 11.6648C25.8624 10.2879 24.6209 9.20887 23.1638 9.20887H16.4732C16.8025 8.20243 17.3334 6.35755 17.3334 4.87555C17.3334 2.5258 15.3368 0.542236 14.0834 0.542236C12.9578 0.542236 12.1529 1.17492 12.1193 1.20199C11.9904 1.30599 11.9167 1.46092 11.9167 1.62555V5.29805L8.79673 12.0591L8.66673 12.1241V11.9172C8.66673 11.6182 8.42405 11.3755 8.12505 11.3755H2.70832C1.2155 11.3756 0 12.5911 0 14.0839V22.7506C0 24.2434 1.2155 25.4589 2.70832 25.4589H5.95832C7.1305 25.4589 8.13038 24.7114 8.5085 23.6692C9.40982 24.1329 10.6232 24.3766 11.3761 24.3766H21.32C22.4998 24.3766 23.5311 23.5804 23.7738 22.4841C23.8983 21.9196 23.8258 21.3509 23.5788 20.8569C24.3783 20.4539 24.9167 19.6294 24.9167 18.6891C24.9167 18.3056 24.8289 17.9384 24.6621 17.6058C25.4616 17.2028 26 16.3784 26 15.4391ZM7.58332 22.7506C7.58332 23.6465 6.85313 24.3756 5.95832 24.3756H2.70832C1.81132 24.3756 1.08332 23.6465 1.08332 22.7506V14.0839C1.08332 13.1879 1.81238 12.4589 2.70832 12.4589V12.4643H7.58113V13.006C7.58113 13.0092 7.58332 13.0114 7.58332 13.0147V22.7506ZM23.7142 16.7771C23.5051 16.8009 23.3285 16.9428 23.2624 17.1432C23.1964 17.3426 23.2505 17.5636 23.4044 17.7077C23.6806 17.9687 23.8323 18.3176 23.8323 18.6902C23.8323 19.3727 23.3166 19.948 22.632 20.026C22.4229 20.0498 22.2463 20.1917 22.1802 20.3922C22.1142 20.5915 22.1683 20.8125 22.3222 20.9566C22.6797 21.2935 22.8227 21.7659 22.7154 22.2501C22.5822 22.8535 21.995 23.2923 21.319 23.2923H11.375C10.5701 23.2923 9.27443 22.9445 8.66668 22.4928V13.3386L9.44775 12.9486C9.55718 12.8933 9.64493 12.8023 9.69693 12.6907L12.9469 5.64905C12.9794 5.57862 12.9967 5.50062 12.9967 5.42262V1.92562C13.2221 1.80105 13.6132 1.63094 14.0801 1.63094C14.6738 1.63094 16.2467 3.1075 16.2467 4.88094C16.2467 6.7865 15.21 9.536 15.1992 9.56312C15.1364 9.72887 15.158 9.9163 15.2599 10.0626C15.3617 10.2088 15.5274 10.2966 15.7062 10.2966H23.1606C24.0641 10.2966 24.8311 10.9422 24.9069 11.7677C24.9644 12.3852 24.6697 12.9724 24.1367 13.3007C23.9699 13.4025 23.8724 13.5877 23.8799 13.7827C23.8864 13.9777 23.9991 14.1532 24.1735 14.2432C24.6307 14.4772 24.9145 14.9365 24.9145 15.4414C24.9134 16.1238 24.3978 16.6991 23.7142 16.7771Z" fill="white"/>
</g>
<defs>
<clipPath id="clip0">
<rect width="26" height="26" fill="white" transform="translate(0 0.000488281)"/>
</clipPath>
</defs>
</svg>

<svg width="26" height="26" fill="none" xmlns="http://www.w3.org/2000/svg"><g clip-path="url(#clip0)"><path d="M26 15.44c0-.652-.259-1.259-.704-1.707a2.69 2.69 0 00.692-2.068c-.126-1.377-1.367-2.456-2.824-2.456h-6.69c.328-1.007.86-2.851.86-4.333 0-2.35-1.997-4.334-3.25-4.334a3.4 3.4 0 00-1.965.66.543.543 0 00-.202.424v3.672l-3.12 6.761-.13.065v-.207a.542.542 0 00-.542-.541H2.708A2.712 2.712 0 000 14.084v8.667a2.712 2.712 0 002.708 2.708h3.25a2.716 2.716 0 002.55-1.79c.902.464 2.115.708 2.868.708h9.944c1.18 0 2.211-.797 2.454-1.893a2.444 2.444 0 00-.195-1.627 2.428 2.428 0 001.083-3.251A2.427 2.427 0 0026 15.439zM7.583 22.75c0 .896-.73 1.626-1.625 1.626h-3.25c-.897 0-1.625-.73-1.625-1.625v-8.667c0-.896.73-1.625 1.625-1.625v.005h4.873v.542l.002.009v9.736zm16.131-5.973a.539.539 0 00-.31.93 1.341 1.341 0 01-.772 2.319.539.539 0 00-.31.93c.358.338.5.81.393 1.294-.133.604-.72 1.042-1.396 1.042h-9.944c-.805 0-2.1-.348-2.708-.8V13.34l.78-.39a.548.548 0 00.25-.258l3.25-7.042a.543.543 0 00.05-.226V1.926a2.283 2.283 0 011.083-.295c.594 0 2.167 1.476 2.167 3.25 0 1.905-1.037 4.655-1.048 4.682a.54.54 0 00.507.734h7.455c.903 0 1.67.645 1.746 1.47a1.615 1.615 0 01-.77 1.534.54.54 0 00.037.942c.457.234.74.694.74 1.198a1.35 1.35 0 01-1.2 1.336z" fill="#fff"/></g><defs><clipPath id="clip0"><path fill="#fff" d="M0 0h26v26H0z"/></clipPath></defs></svg>
